svgs/dkb.svg

<svg xmlns="http://www.w3.org/2000/svg" viewBox="0 0 192 192"><path d="M17.172 133.522c-1.693-3.726-1.494-69.655.222-73.656 1.298-3.025 1.488-3.065 16.249-3.402 17.633-.403 22.93.995 30.888 8.151l5.341 4.803.681-5.021c1.079-7.946 1.543-8.205 14.7-8.205 9.597 0 11.943.354 12.684 1.915.825 1.736 1.035 1.736 2.258 0 1.158-1.643 5.051-1.915 27.476-1.915 14.37 0 27.713.536 29.652 1.192 11.321 3.824 17.846 16.974 14.824 29.87-.932 3.974-.759 5.39 1.188 9.754 1.632 3.658 2.274 7.226 2.261 12.583-.024 10.297-4.005 17.972-11.812 22.777l-5.56 3.421h-27.888c-27.144 0-27.93-.068-29.417-2.568l-1.527-2.569-1.167 2.569c-1.085 2.388-2.038 2.568-13.568 2.568-14.084 0-14.553-.321-14.553-9.964v-5.228l-3.898 4.405c-7.949 8.982-11.192 10.103-30.582 10.572-16.505.399-17.383.301-18.452-2.052Zm37.94-11.475c9.017-5.516 13.099-13.753 13.216-26.668.084-9.289-2.386-16.09-7.794-21.462-5.639-5.601-9.811-6.994-22.914-7.652l-12.214-.612v60.598l12.214-.487c10.701-.427 12.868-.888 17.492-3.717Zm-17.573-8.877c-1.436-1.691-1.738-4.663-1.738-17.077 0-13.116.247-15.293 1.94-17.098 1.646-1.755 2.68-1.873 6.823-.78 9.295 2.454 13.069 7.661 13.062 18.021-.006 10.205-4.895 16.447-14.261 18.211-3.076.58-4.519.263-5.826-1.277Zm10.944-13.555c1.337-3.457.181-9.191-2.027-10.055-.936-.366-1.3 1.404-1.3 6.329 0 7.316 1.353 8.831 3.327 3.726Zm41.372 18.04c0-9.511 1.448-12.927 5.21-12.29 1.878.318 3.672 2.842 7.264 10.219l4.77 9.796 6.063.372c7.234.444 7.367 1.591-1.975-16.95-3.729-7.4-6.779-14.293-6.779-15.319 0-1.027 2.724-6.944 6.055-13.149 3.33-6.206 6.398-11.972 6.818-12.814.575-1.153-.744-1.531-5.341-1.531h-6.103l-3.526 7.384c-1.939 4.061-4.353 8.267-5.365 9.345-1.689 1.801-2.056 1.795-4.466-.064-2.323-1.793-2.625-2.87-2.625-9.346v-7.319H79.46v60.004h10.395Zm70.408 5.526c4.274-2.706 6.515-7.811 6.515-14.841 0-4.397-.639-6.385-3.119-9.713-3.5-4.697-3.803-6.611-1.592-10.056 1.771-2.757 2.081-11.87.522-15.302-2.144-4.72-7.121-6.474-19.98-7.042l-12.214-.54v60.552l13.254-.465c10.028-.352 14.071-.983 16.614-2.593Zm-17.666-9.111c-2.11-2.748-2.48-12.51-.559-14.773 2.028-2.39 8.873-1.792 11.226.98 2.681 3.158 2.75 9.927.129 12.72-3.111 3.317-8.649 3.867-10.796 1.073Zm-.559-23.835c-1.532-1.804-1.632-8.867-.172-12.081 1.464-3.221 7.177-3.148 10.163.128 4.685 5.142 1.691 13.423-4.853 13.423-2.14 0-4.452-.661-5.138-1.47Zm-21.206-2.912-.312-6.832-3.416 6.659-3.416 6.658 3.416 6.81 3.416 6.811.312-6.638c.171-3.65.171-9.711 0-13.468Z"/></svg>

<svg
    xmlns="http://www.w3.org/2000/svg"
    viewBox="0 0 192 192"
    id="vector">
    <path
        id="path"
        d="M 17.172 133.522 C 15.479 129.796 15.678 63.867 17.394 59.866 C 18.692 56.841 18.882 56.801 33.643 56.464 C 51.276 56.061 56.573 57.459 64.531 64.615 L 69.872 69.418 L 70.553 64.397 C 71.632 56.451 72.096 56.192 85.253 56.192 C 94.85 56.192 97.196 56.546 97.937 58.107 C 98.762 59.843 98.972 59.843 100.195 58.107 C 101.353 56.464 105.246 56.192 127.671 56.192 C 142.041 56.192 155.384 56.728 157.323 57.384 C 168.644 61.208 175.169 74.358 172.147 87.254 C 171.215 91.228 171.388 92.644 173.335 97.008 C 174.967 100.666 175.609 104.234 175.596 109.591 C 175.572 119.888 171.591 127.563 163.784 132.368 L 158.224 135.789 L 130.336 135.789 C 103.192 135.789 102.406 135.721 100.919 133.221 L 99.392 130.652 L 98.225 133.221 C 97.14 135.609 96.187 135.789 84.657 135.789 C 70.573 135.789 70.104 135.468 70.104 125.825 L 70.104 120.597 L 66.206 125.002 C 58.257 133.984 55.014 135.105 35.624 135.574 C 19.119 135.973 18.241 135.875 17.172 133.522 Z M 55.112 122.047 C 64.129 116.531 68.211 108.294 68.328 95.379 C 68.412 86.09 65.942 79.289 60.534 73.917 C 54.895 68.316 50.723 66.923 37.62 66.265 L 25.406 65.653 L 25.406 126.251 L 37.62 125.764 C 48.321 125.337 50.488 124.876 55.112 122.047 Z M 37.539 113.17 C 36.103 111.479 35.801 108.507 35.801 96.093 C 35.801 82.977 36.048 80.8 37.741 78.995 C 39.387 77.24 40.421 77.122 44.564 78.215 C 53.859 80.669 57.633 85.876 57.626 96.236 C 57.62 106.441 52.731 112.683 43.365 114.447 C 40.289 115.027 38.846 114.71 37.539 113.17 Z M 48.483 99.615 C 49.82 96.158 48.664 90.424 46.456 89.56 C 45.52 89.194 45.156 90.964 45.156 95.889 C 45.156 103.205 46.509 104.72 48.483 99.615 Z M 89.855 117.655 C 89.855 108.144 91.303 104.728 95.065 105.365 C 96.943 105.683 98.737 108.207 102.329 115.584 L 107.099 125.38 L 113.162 125.752 C 120.396 126.196 120.529 127.343 111.187 108.802 C 107.458 101.402 104.408 94.509 104.408 93.483 C 104.408 92.456 107.132 86.539 110.463 80.334 C 113.793 74.128 116.861 68.362 117.281 67.52 C 117.856 66.367 116.537 65.989 111.94 65.989 L 105.837 65.989 L 102.311 73.373 C 100.372 77.434 97.958 81.64 96.946 82.718 C 95.257 84.519 94.89 84.513 92.48 82.654 C 90.157 80.861 89.855 79.784 89.855 73.308 L 89.855 65.989 L 79.46 65.989 L 79.46 125.993 L 89.855 125.993 Z M 160.263 123.181 C 164.537 120.475 166.778 115.37 166.778 108.34 C 166.778 103.943 166.139 101.955 163.659 98.627 C 160.159 93.93 159.856 92.016 162.067 88.571 C 163.838 85.814 164.148 76.701 162.589 73.269 C 160.445 68.549 155.468 66.795 142.609 66.227 L 130.395 65.687 L 130.395 126.239 L 143.649 125.774 C 153.677 125.422 157.72 124.791 160.263 123.181 Z M 142.597 114.07 C 140.487 111.322 140.117 101.56 142.038 99.297 C 144.066 96.907 150.911 97.505 153.264 100.277 C 155.945 103.435 156.014 110.204 153.393 112.997 C 150.282 116.314 144.744 116.864 142.597 114.07 Z M 142.038 90.235 C 140.506 88.431 140.406 81.368 141.866 78.154 C 143.33 74.933 149.043 75.006 152.029 78.282 C 156.714 83.424 153.72 91.705 147.176 91.705 C 145.036 91.705 142.724 91.044 142.038 90.235 Z M 120.832 87.323 L 120.52 80.491 L 117.104 87.15 L 113.688 93.808 L 117.104 100.618 L 120.52 107.429 L 120.832 100.791 C 121.003 97.141 121.003 91.08 120.832 87.323 Z"
        fill="#000000"
        stroke-width="8"/>
</svg>
